packages/foundations/assets/icons/functional/images/business & payment/gift_24.svg

<svg width="24" height="24" viewBox="0 0 24 24" fill="none" xmlns="http://www.w3.org/2000/svg">
<g clip-path="url(#clip0_184_61)">
<path fill-rule="evenodd" clip-rule="evenodd" d="M14.781 2.5C16.719 2.5 18.312 4.091 18.312 5.994C18.312 6.556 18.156 7.024 17.937 7.523H19.5C20.875 7.523 22 8.646 22 9.988V19.004C21.9976 19.6659 21.7333 20.3 21.2649 20.7677C20.7965 21.2354 20.1619 21.4987 19.5 21.5H4.5C3.83806 21.4987 3.20354 21.2354 2.7351 20.7677C2.26666 20.3 2.00238 19.6659 2 19.004V9.988C2 8.646 3.125 7.523 4.5 7.523H6.031C5.813 7.023 5.688 6.556 5.688 5.994C5.69248 5.06768 6.06286 4.18066 6.71844 3.5262C7.37402 2.87175 8.26167 2.50289 9.188 2.5C9.73257 2.49831 10.2695 2.62785 10.7534 2.87763C11.2373 3.12742 11.654 3.49011 11.968 3.935C12.626 3.062 13.656 2.5 14.781 2.5ZM11 13.482H4V19.004C4 19.254 4.219 19.504 4.5 19.504H11V13.482ZM20 13.482H13V19.503H19.5C19.781 19.503 20 19.253 20 19.004V13.482ZM11 9.489H4.5C4.219 9.489 4 9.707 4 9.988V11.485H11V9.489ZM19.5 9.489H13V11.485H20V9.988C20 9.707 19.781 9.488 19.5 9.488V9.489ZM9.187 4.497C8.78969 4.497 8.40862 4.65462 8.1274 4.93528C7.84618 5.21594 7.68779 5.5967 7.687 5.994C7.687 6.837 8.344 7.523 9.187 7.523C10 7.523 10.687 6.837 10.687 5.994C10.681 5.59831 10.521 5.22054 10.2409 4.94099C9.96079 4.66145 9.5827 4.50216 9.187 4.497ZM14.781 4.497C13.969 4.497 13.281 5.183 13.281 5.994C13.281 6.837 13.969 7.523 14.781 7.523C15.625 7.523 16.312 6.837 16.312 5.994C16.312 5.184 15.624 4.497 14.781 4.497Z" fill="#1A1C1F"/>
</g>
<defs>
<clipPath id="clip0_184_61">
<rect width="24" height="24" fill="white"/>
</clipPath>
</defs>
</svg>

<svg xmlns="http://www.w3.org/2000/svg" width="24" height="24" fill="none"><g clip-path="url(#a)"><path fill="#1A1C1F" fill-rule="evenodd" d="M14.781 2.5c1.938 0 3.531 1.591 3.531 3.494 0 .562-.156 1.03-.375 1.529H19.5c1.375 0 2.5 1.123 2.5 2.465v9.016a2.505 2.505 0 0 1-2.5 2.496h-15A2.505 2.505 0 0 1 2 19.004V9.988c0-1.342 1.125-2.465 2.5-2.465h1.531c-.218-.5-.343-.967-.343-1.529a3.51 3.51 0 0 1 3.5-3.494 3.39 3.39 0 0 1 2.78 1.435c.658-.873 1.688-1.435 2.813-1.435M11 13.482H4v5.522c0 .25.219.5.5.5H11zm9 0h-7v6.021h6.5c.281 0 .5-.25.5-.499zm-9-3.993H4.5c-.281 0-.5.218-.5.499v1.497h7zm8.5 0H13v1.996h7V9.988c0-.281-.219-.5-.5-.5zM9.187 4.497a1.5 1.5 0 0 0-1.5 1.497c0 .843.657 1.529 1.5 1.529.813 0 1.5-.686 1.5-1.529a1.52 1.52 0 0 0-1.5-1.497m5.594 0c-.812 0-1.5.686-1.5 1.497 0 .843.688 1.529 1.5 1.529.844 0 1.531-.686 1.531-1.529 0-.81-.688-1.497-1.531-1.497" clip-rule="evenodd"/></g><defs><clipPath id="a"><path fill="#fff" d="M0 0h24v24H0z"/></clipPath></defs></svg>
